X:1
T:Title
%%score ( 1 2 ) ( 3 4 )
L:1/8
Q:1/4=120
M:4/4
K:Eb
V:1 treble nm="Midi_20"
V:2 treble 
V:3 bass nm="Midi_20"
V:4 bass 
V:1
"^Epiphany (11 10. 11 10.)""^E. J. Hopkins\n(1818-1901)""^Brightest and best""^Reginald Heber" G4 A2 G2 | %1
 F4 c2 c2 | F4 G2 A2 | A4 G4 || F4 B2 =A2 | G4 c2 B2 | =A4 G2 A2 | B8 || B4 A2 B2 | G4 e2 e2 | %10
 d4 c2 d2 | c4 B4 || c4 G2 B2 | B4 A2 G2 | F4 G2 F2 | E8 |] %16
V:2
 E4 E2 E2 | E4 E2 E2 | E4 E2 D2 | D4 E4 || F4 D2 D2 | E4 E2 E2 | E4 E2 E2 | D8 || E4 E2 D2 | %9
 E4 G2 G2 | (G2 ^F2) =E2 F2 | ^F4 G4 || C4 =E2 E2 | F4 C2 C2 | D4 C2 D2 | E8 |] %16
V:3
 B,4 C2 B,2 | =A,4 A,2 A,2 | B,2 _A,2 G,2 F,2 | F,4 G,4 || B,4 B,2 B,2 | B,4 =A,2 B,2 | C4 B,2 C2 | %7
 B,8 || %8
"^1. Brightest and best of the sons of the morning,\nDawn on our darkness and lend us Thine aid;\nStar of the East, the horizon adorning,\nGuide where our infant Redeemer is laid.\n\n2. Cold on His cradle the dewdrops are shining;\nLow lies His head with the beasts of the stall;\nAngels adore Him in slumber reclining,\nMaker and Monarch and Saviour of all!" B,4 B,2 B,2 | %9
 B,4 =A,2 A,2 | =A,4 G,2 A,2 | =A,4 B,4 || %12
"^3. Say, shall we yield Him, in costly devotion,\nOdours of Edom and offerings divine?\nGems of the mountain and pearls of the ocean,\nMyrrh from the forest, or gold from the mine?\n\n4. Vainly we offer each ample oblation,\nVainly with gifts would His favour secure;\nRicher by far is the heart’s adoration,\nDearer to God are the prayers of the poor.\n" G,4 C2 C2 | %13
 C4 C2 B,2 | A,4 A,2 A,2 | G,8 |] %16
V:4
 E,4 E,2 E,2 | C,4 F,,2 F,,2 | B,,4 B,,2 B,,2 | E,4 E,4 || D,4 G,,2 G,,2 | C,4 C,2 C,2 | %6
 F,,4 F,2 F,2 | B,,8 || G,4 F,2 F,2 | E,4 C,2 C,2 | D,4 D,2 D,2 | G,,4 G,4 || =E,4 C,2 C,2 | %13
 F,4 F,,2 F,,2 | B,,4 B,,2 B,,2 | E,8 |] %16

